X:95
T:Blue Bells of Scotland,The. JJo.095
S:J.Jones MS,1801,N.Shrops.
N:JJ has the dcrs (e3) a note later than
N:one usually hears.
A:N Shropshire
Z:Neil Brookes 2006
M:4/4
L:1/8
Q:1/4=160
K:G
d2|g4f2e2|d2e3fg2|B2B2c2TA2|G4||
d2|B2G2B2d2|g2e3fg2|f2d2e2^c2|d4d3d|!
g4f2e2|d2e3fg2|B2B2c2TA2|G4|]

